ubuntu-mono-light/status/24/nm-vpn-standalone-lock.svg

<?xml version="1.0" encoding="UTF-8" standalone="no"?>
<!-- Created with Inkscape (http://www.inkscape.org/) -->

<svg
   xmlns:dc="http://purl.org/dc/elements/1.1/"
   xmlns:cc="http://creativecommons.org/ns#"
   xmlns:rdf="http://www.w3.org/1999/02/22-rdf-syntax-ns#"
   xmlns:svg="http://www.w3.org/2000/svg"
   xmlns="http://www.w3.org/2000/svg"
   xmlns:sodipodi="http://sodipodi.sourceforge.net/DTD/sodipodi-0.dtd"
   xmlns:inkscape="http://www.inkscape.org/namespaces/inkscape"
   version="1.0"
   width="24"
   height="24"
   id="svg3340"
   inkscape:version="0.48.0 r9654"
   sodipodi:docname="nm-vpn-standalone-lock.svg">
  <metadata
     id="metadata10">
    <rdf:RDF>
      <cc:Work
         rdf:about="">
        <dc:format>image/svg+xml</dc:format>
        <dc:type
           rdf:resource="http://purl.org/dc/dcmitype/StillImage" />
        <dc:title></dc:title>
      </cc:Work>
    </rdf:RDF>
  </metadata>
  <sodipodi:namedview
     pagecolor="#ffffff"
     bordercolor="#666666"
     borderopacity="1"
     objecttolerance="10"
     gridtolerance="10"
     guidetolerance="10"
     inkscape:pageopacity="0"
     inkscape:pageshadow="2"
     inkscape:window-width="1280"
     inkscape:window-height="753"
     id="namedview8"
     showgrid="false"
     inkscape:zoom="13.227273"
     inkscape:cx="-0.49140893"
     inkscape:cy="11.793814"
     inkscape:window-x="0"
     inkscape:window-y="24"
     inkscape:window-maximized="1"
     inkscape:current-layer="svg3340" />
  <defs
     id="defs3342" />
  <path
     inkscape:connector-curvature="0"
     style="opacity:0.3;fill:#ffffff;fill-opacity:1;fill-rule:evenodd;stroke:none;stroke-width:1.69999993;marker:none;visibility:visible;display:inline;overflow:visible;enable-background:accumulate"
     id="rect2822-7"
     d="M 11,4 C 8.784,4 7,5.784 7,8 l 0,3 -1,0 c -0.554,0 -1,0.446 -1,1 l 0,9 c 0,0.554 0.446,1 1,1 l 12,0 c 0.554,0 1,-0.446 1,-1 l 0,-9 c 0,-0.554 -0.446,-1 -1,-1 l -1,0 0,-3 C 17,5.784 15.216,4 13,4 l -2,0 z m 0,2 2,0 c 1.108,0 2,0.892 2,2 l 0,3 -6,0 0,-3 C 9,6.892 9.892,6 11,6 z" />
  <path
     inkscape:connector-curvature="0"
     style="fill:#3c3c3c;fill-opacity:1;fill-rule:evenodd;stroke:none;stroke-width:1.69999993;marker:none;visibility:visible;display:inline;overflow:visible;enable-background:accumulate"
     id="rect2822"
     d="m 11,2.9830526 c -2.216,0 -4,1.784 -4,4 l 0,3.0000004 -1,0 c -0.554,0 -1,0.446 -1,1 l 0,9 c 0,0.554 0.446,1 1,1 l 12,0 c 0.554,0 1,-0.446 1,-1 l 0,-9 c 0,-0.554 -0.446,-1 -1,-1 l -1,0 0,-3.0000004 c 0,-2.216 -1.784,-4 -4,-4 l -2,0 z m 0,2 2,0 c 1.108,0 2,0.892 2,2 l 0,3.0000004 -6,0 0,-3.0000004 c 0,-1.108 0.892,-2 2,-2 z" />
  <path
     inkscape:connector-curvature="0"
     style="opacity:0.3;fill:none;stroke:#ffffff;stroke-width:0.5;stroke-miterlimit:4;stroke-opacity:1;stroke-dasharray:none"
     id="path3337"
     d="m 11,5.2018026 c 0.844149,0.030316 1.701715,-0.073098 2.534088,0.079067 0.905603,0.2439946 1.347367,1.2115035 1.247162,2.088098 0,0.7984452 0,1.5968903 0,2.3953354 -1.854167,0 -3.708333,0 -5.5625,0 C 9.2375632,8.7168658 9.1780822,7.6645495 9.2544528,6.620668 9.4025451,5.8054811 10.173141,5.1842328 11,5.2018026 z" />
</svg>

<?xml version="1.0" encoding="UTF-8" standalone="no"?>
<!-- Created with Inkscape (http://www.inkscape.org/) -->
<svg
   xmlns:svg="http://www.w3.org/2000/svg"
   xmlns="http://www.w3.org/2000/svg"
   version="1.0"
   width="24"
   height="24"
   id="svg3340">
  <defs
     id="defs3342" />
  <g
     id="layer1">
    <path
       d="M 11,3 C 8.784,3 7,4.784 7,7 L 7,10 L 6,10 C 5.446,10 5,10.446 5,11 L 5,20 C 5,20.554 5.446,21 6,21 L 18,21 C 18.554,21 19,20.554 19,20 L 19,11 C 19,10.446 18.554,10 18,10 L 17,10 L 17,7 C 17,4.784 15.216,3 13,3 L 11,3 z M 11,5 L 13,5 C 14.108,5 15,5.892 15,7 L 15,10 L 9,10 L 9,7 C 9,5.892 9.892,5 11,5 z"
       id="rect2822"
       style="fill:#3a3935;fill-opacity:1;stroke:none" />
    <path
       d="M 11,2.5 C 8.7213717,2.4455379 6.6348643,4.3781613 6.5131186,6.6537075 C 6.4849712,7.601882 6.5069814,8.5513038 6.5,9.5 C 5.7609436,9.4266366 4.9077651,9.6523317 4.6185343,10.418103 C 4.3977398,11.184733 4.5409795,12.002079 4.5,12.792875 C 4.5051538,15.24605 4.4896638,17.699752 4.5077956,20.152597 C 4.574406,21.062516 5.5060109,21.623414 6.358575,21.5 C 10.289849,21.49481 14.221654,21.510384 18.152597,21.492204 C 19.062516,21.425594 19.623414,20.493989 19.5,19.641425 C 19.494834,16.71015 19.510353,13.778347 19.492204,10.847403 C 19.425594,9.9374841 18.493989,9.3765861 17.641425,9.5 C 17.340044,9.4810393 17.573697,8.9270449 17.5,8.6804001 C 17.484209,7.3565713 17.648738,5.9378556 16.903905,4.7598827 C 16.062478,3.2438127 14.305214,2.366851 12.5902,2.5 C 12.060133,2.5 11.530067,2.5 11,2.5 z"
       id="path3330"
       style="opacity:0.6;fill:none;fill-opacity:1;fill-rule:nonzero;stroke:#eae3d0;stroke-width:0.99999994;stroke-linecap:round;stroke-linejoin:miter;marker:none;marker-start:none;marker-mid:none;marker-end:none;stroke-miterlimit:4;stroke-dasharray:none;stroke-dashoffset:0;stroke-opacity:1;visibility:visible;display:inline;overflow:visible;enable-background:accumulate" />
    <path
       d="M 11,5.21875 C 11.844149,5.249066 12.701715,5.1456519 13.534088,5.2978165 C 14.439691,5.5418111 14.881455,6.50932 14.78125,7.3859145 C 14.78125,8.1843597 14.78125,8.9828048 14.78125,9.78125 C 12.927083,9.78125 11.072917,9.78125 9.21875,9.78125 C 9.2375632,8.7338132 9.1780822,7.6814969 9.2544528,6.6376154 C 9.4025451,5.8224285 10.173141,5.2011802 11,5.21875 z"
       id="path3337"
       style="opacity:0.3;fill:none;fill-opacity:1;stroke:#000000;stroke-width:0.5;stroke-miterlimit:4;stroke-dasharray:none;stroke-opacity:1" />
  </g>
</svg>
